X: 167
M:C
L:1/8
K:F
g !segno!|\
c<FTc>A d<GB>d | (c<F)Tc>A d>Bc>A | (B<d)(A<c) {/^F}G>AB<d | c<FTc>A c<FA :|
c |\
~(f>g){fg}a<f e>fg<a | ~(f>g){fg}a>f g>ef>d | T(c<A)f>A {/^F}G>AB<d | c<FTc>A c<FA>c |


